X: 17
T: Walley Honey
T: Longways for as many as will.
%R: slip-jig
B: Daniel Wright "Wright's Compleat Collection of Celebrated Country Dances" 1740 p.9
S: http://library.efdss.org/cgi-bin/dancebooks.cgi
Z: 2014 John Chambers <jc:trillian.mit.edu>
N: The rhythm is wrong at the strains' ends; not fixed.
M: 9/8
L: 1/8
K: C
% - - - - - - - - - - - - - - - - - - - - - - - - -
|:\
cGG G2G cAA | cGG G2G c3 |\
cGG G2G cAA | B2c d/e/fd c3 :|
|: e |\
de/f/g G2c AFe | de/f/g G2G f2e |\
de/f/g G2c AFc | B2c d/e/fd c2 :|
% - - - - - - - - - - - - - - - - - - - - - - - - -
%%begintext align
%% The 1st Man setts to the 2d Wo. & turns
%% Her .| First Wo. does the same with the
%% 2d Man :| The 1st and 2d Men leads out
%% first, & 2d Wo. does the same at the same
%% time, and then turn your own Partners .|
%% The 1st & 2d Cu. right and left half round.
%%endtext
% - - - - - - - - - - - - - - - - - - - - - - - - -
%%sep 2 4 300
